resources/img/aside-4.svg

<svg width="24" height="24" viewBox="0 0 24 24" fill="none" xmlns="http://www.w3.org/2000/svg">
<path d="M12 19L19 12L22 15L15 22L12 19Z" stroke="white" stroke-width="2" stroke-linecap="round" stroke-linejoin="round"/>
<path d="M18 13L16.5 5.5L2 2L5.5 16.5L13 18L18 13Z" stroke="white" stroke-width="2" stroke-linecap="round" stroke-linejoin="round"/>
<path d="M2 2L9.586 9.586" stroke="white" stroke-width="2" stroke-linecap="round" stroke-linejoin="round"/>
<path d="M11 13C12.1046 13 13 12.1046 13 11C13 9.89543 12.1046 9 11 9C9.89543 9 9 9.89543 9 11C9 12.1046 9.89543 13 11 13Z" stroke="white" stroke-width="2" stroke-linecap="round" stroke-linejoin="round"/>
</svg>

<svg width="24" height="24" fill="none" xmlns="http://www.w3.org/2000/svg"><path d="M12 19l7-7 3 3-7 7-3-3z" stroke="#fff" stroke-width="2" stroke-linecap="round" stroke-linejoin="round"/><path d="M18 13l-1.5-7.5L2 2l3.5 14.5L13 18l5-5zM2 2l7.586 7.586" stroke="#fff" stroke-width="2" stroke-linecap="round" stroke-linejoin="round"/><path d="M11 13a2 2 0 100-4 2 2 0 000 4z" stroke="#fff" stroke-width="2" stroke-linecap="round" stroke-linejoin="round"/></svg>
